icon/lg/nodal.svg

<?xml version="1.0" encoding="UTF-8" standalone="no"?>
<svg viewBox="0 0 256 257" version="1.1" xmlns="http://www.w3.org/2000/svg" xmlns:xlink="http://www.w3.org/1999/xlink" preserveAspectRatio="xMidYMid" height="1em" width="1em">
  <g>
    <path d="M192.0834,0.0004 L127.8404,43.1804 L128.0734,44.5784 L190.4794,86.1814 L192.0834,86.2214 L192.8864,84.8624 L193.0414,1.8874 L192.0834,0.0004 Z" fill="#138EE2"/>
    <path d="M62.9208,174.2287 L62.7088,252.4397 L64.3328,256.3327 L128.2578,213.9247 L127.8148,211.6427 L69.0508,172.3257 L64.3328,171.1107 L62.9208,174.2287 Z" fill="#00BDFF"/>
    <path d="M192.0834,0.0004 L192.0834,86.2214 L64.9154,0.9984 L64.1254,4.5364 L251.0494,212.4884 L255.9994,214.3044 L255.9994,42.7774 L192.0834,0.0004 Z" fill="#00BDFF"/>
    <path d="M0,42.9439 L0,213.7219 L64.333,256.3329 L64.333,171.1109 L192.083,256.6659 L255.667,214.0549 L64.915,0.9989 L0,42.9439 Z" fill="#00E1FF"/>
  </g>
</svg>

<svg width="256" height="257" xmlns="http://www.w3.org/2000/svg" preserveAspectRatio="xMidYMid"><path d="M192.083 0 127.84 43.18l.233 1.398 62.406 41.603 1.604.04.803-1.359.155-82.975L192.083 0Z" fill="#138EE2"/><path d="m62.92 174.229-.211 78.21 1.624 3.894 63.925-42.408-.443-2.282-58.764-39.317-4.718-1.215-1.412 3.118ZM192.083 0v86.221L64.915.998l-.79 3.538L251.05 212.488l4.95 1.816V42.777L192.083 0Z" fill="#00BDFF"/><path d="M0 42.944v170.778l64.333 42.61v-85.221l127.75 85.555 63.584-42.611L64.915.999 0 42.944Z" fill="#00E1FF"/></svg>
